#TITLE Nonogram Madness - Title Screen
#COMPOSER Nathan Demick
#PROGRAMER Nathan Demick

;Volume envelopes
@v0 = { 15 14 13 12 10 8 6 4 }
@v1 = { 15 15 14 14 13 13 12 12 11 11 10 10 9 9 8 8 7 7 6 6 }

;Tempo
ABCDE t120

;Init A channel
A l4 o4 @01 @v0
C l8 o3 q6


A [e f g a b c d e]2
C [c r c r g r g r c r c r d e f g]4
